X:511
T:Jenny Lind
C:Attributed to Anton Wallerstein (1813-1892)
M:2/2
R:Polka
L:1/4
S:Colin Hume's website,  colinhume.com  - chords can also be printed below the stave.
Q:1/2=110
K:D
P:A
|: A/G/ | "D"FA "G"GB | "D"Af f/e/f | "A7"Ge e/^d/e | "D"Fd d/c/d |\
"D"FA "G"GB | "D"Af f/e/f | "Em"ge "A7"e/g/f/e/ | "D"df d :|
P:B
K:G
|: e/f/ | "C"gf e/g/f/e/ | "G"dB B/A/B | "D7"cA A/G/A | "G"BG Ge/f/ |\
"C"gf e/g/f/e/ | "G"dB B/A/B | "D7"cA A/c/B/A/ | "G"GB G :|

